X:1
T:Title
%%score { ( 1 3 ) | ( 2 4 ) }
L:1/8
M:4/4
K:D
V:1 treble nm="Grand Piano"
V:3 treble 
V:2 bass 
V:4 bass 
V:1
 z4 z2[Q:1/4=100] [DF]2 | [FA]3 [FA] [GB]>[FA] [DF]>[FA] | d6 z2 | c3 B A2 G2 |[M:3/4] F6 | %5
[M:1/4] [FA]G |[M:4/4] [A,DF]3 [DFA] [DAd]>[DAd] [DAc]>[DGB] | [DFA]6 F2 | E3 A A2 ^G2 | %9
[M:7/8] A-A-A- A- A3 |[M:1/4] [FA]2 |[M:4/4] [Fd]3 [Fd] [Ge] [Fd]3 | [DGB]3 [DBd] [DGB] [DFA]3 | %13
 [F,D]3 [G,DE][K:treble] [A,DF][DGB][DFA][A,DF] |[M:3/4] [CE]6 |[M:1/4] [A,CG]2 | %16
[M:4/4] [A,DF]3[K:bass] [A,CE] [G,CE] [F,D]3 | [Fd]3 [FA] B d3 | A3 B A[DF][CE]D | %19
[M:3/4][K:bass] D6 |] %20
V:2
 z4 z2 [D,A,]2 | [D,D]3 [D,D] [D,D]>[D,D] [D,A,]>[D,D] | A,2- [E,A,-]2 [F,A,]2 D,2 | %3
 [A,EG]3 [A,DG] [A,CF]2[K:bass] [A,CE]2 |[M:3/4] [D,A,D]6 |[M:1/4] z E | %6
[M:4/4] D,3 D, F,>F, G,>G, | D,6 [D,A,D]2 | [E,A,C]3 [E,A,C] [E,A,C]2 [E,B,D]2 |[M:7/8] CCC D E3 | %10
[M:1/4] [D,D]2 |[M:4/4] [D,D]3 [D,D] [D,D] [D,D]3 | G,3 G, D, D,3 | D,3 D, D,D,D,D, | %14
[M:3/4] A,2 A,A, A,G, |[M:1/4] F,E, |[M:4/4] D,3 A,, A,, D,3 | %17
 [D,A,]3 [D,D][K:treble] [G,DG] [G,B,G]3 | [A,DF]3 [A,DG] [A,DF][K:bass][A,,A,][A,,G,][D,F,] | %19
[M:3/4] D,-[D,-F,] [D,-G,][D,-G,] [D,F,]2 |] %20
V:3
 x8 | x8 | F2 G2 A2 [DFA]2 | x8 |[M:3/4] x6 |[M:1/4] x2 |[M:4/4] x8 | x8 | x8 |[M:7/8] z EE F G3 | %10
[M:1/4] x2 |[M:4/4] x8 | x8 | x4[K:treble] x4 |[M:3/4] x6 |[M:1/4] x2 |[M:4/4] x3[K:bass] x5 | x8 | %18
 x8 |[M:3/4][K:bass] z A, B,B, A,2 |] %20
V:4
 x8 | x8 | D,2 z2 z4 | x6[K:bass] x2 |[M:3/4] x6 |[M:1/4] [D,D]2 |[M:4/4] x8 | x8 | x8 | %9
[M:7/8] A,-A,-A,- A,- A,3 |[M:1/4] x2 |[M:4/4] x8 | x8 | x8 |[M:3/4] x6 |[M:1/4] x2 |[M:4/4] x8 | %17
 x4[K:treble] x4 | x5[K:bass] x3 |[M:3/4] .F,2 z2 z2 |] %20

